dist/assets/images/payment/Belcart.svg

<svg width="50" height="34" viewBox="0 0 50 34" fill="none" xmlns="http://www.w3.org/2000/svg">
<path d="M0 4.25C0 1.90279 1.86548 0 4.16667 0H45.8333C48.1345 0 50 1.90279 50 4.25V29.75C50 32.0972 48.1345 34 45.8333 34H4.16667C1.86548 34 0 32.0972 0 29.75V4.25Z" fill="#1E4D51"/>
<path opacity="0.5" fill-rule="evenodd" clip-rule="evenodd" d="M10.5001 20.2134C12.0993 20.2134 13.3704 18.7751 13.3704 16.9774C13.3704 15.1796 12.0583 13.7413 10.5001 13.7413C8.90099 13.7413 7.62988 15.1796 7.62988 16.9774C7.62988 18.7751 8.90099 20.2134 10.5001 20.2134Z" fill="white"/>
<path opacity="0.5" fill-rule="evenodd" clip-rule="evenodd" d="M14.9692 17.6518L13.0831 15.5394C13.0421 15.4944 13.0011 15.4944 12.9601 15.5394L11.689 16.9327C11.648 16.9776 11.648 17.0226 11.689 17.0675L12.304 17.7417L13.1651 17.8316C13.2061 17.8316 13.2471 17.8765 13.2471 17.9214V18.7754L13.5751 19.135C13.6161 19.1799 13.6571 19.1799 13.6981 19.135L14.9692 17.7417C15.0102 17.7417 15.0102 17.6967 14.9692 17.6518Z" fill="url(#paint0_linear_18_263)"/>
<path opacity="0.5" fill-rule="evenodd" clip-rule="evenodd" d="M13.247 20.9776V17.9663C13.247 17.9213 13.206 17.8764 13.165 17.8764H11.3608C11.3198 17.8764 11.2788 17.9213 11.2788 17.9663V18.9101L11.8529 19.7191C11.8939 19.7641 11.8939 19.809 11.8529 19.854L11.2788 20.4832V20.9776C11.2788 21.0225 11.3198 21.0675 11.3608 21.0675H13.165C13.206 21.0675 13.247 21.0225 13.247 20.9776Z" fill="url(#paint1_linear_18_263)"/>
<path opacity="0.5" fill-rule="evenodd" clip-rule="evenodd" d="M9.96685 21.9662L11.853 19.8538C11.894 19.8089 11.894 19.7639 11.853 19.719L10.5819 18.3257C10.5409 18.2808 10.4999 18.2808 10.4589 18.3257L9.84385 18.9999L9.72084 19.9886C9.72084 20.0336 9.67983 20.0785 9.63883 20.0785H8.85976L8.53173 20.4381C8.49073 20.483 8.49073 20.528 8.53173 20.5729L9.80284 21.9662C9.84384 22.0112 9.92585 22.0112 9.96685 21.9662Z" fill="url(#paint2_linear_18_263)"/>
<path opacity="0.5" fill-rule="evenodd" clip-rule="evenodd" d="M6.97407 20.0787H9.6393C9.68031 20.0787 9.72131 20.0337 9.72131 19.9888V18.0112C9.72131 17.9663 9.68031 17.9213 9.6393 17.9213H8.73722L8.08117 18.5056C8.04016 18.5506 7.99916 18.5506 7.95816 18.5056L7.42511 17.9213H6.97407C6.93307 17.9213 6.89206 17.9663 6.89206 18.0112V19.9888C6.85106 20.0337 6.89207 20.0787 6.97407 20.0787Z" fill="url(#paint3_linear_18_263)"/>
<path opacity="0.5" fill-rule="evenodd" clip-rule="evenodd" d="M7.75244 13.0224V16.0337C7.75244 16.0787 7.79344 16.1236 7.83445 16.1236H9.63861C9.67961 16.1236 9.72061 16.0787 9.72061 16.0337V15.0899L9.14656 14.3258C9.10556 14.2809 9.10556 14.2359 9.14656 14.191L9.72061 13.5618V13.0674C9.72061 13.0224 9.67961 12.9775 9.63861 12.9775H7.83445C7.79344 12.9325 7.75244 12.9775 7.75244 13.0224Z" fill="url(#paint4_linear_18_263)"/>
<path opacity="0.5" fill-rule="evenodd" clip-rule="evenodd" d="M11.0743 12.0337L9.1881 14.1461C9.1471 14.191 9.1471 14.236 9.1881 14.2809L10.4592 15.6742C10.5002 15.7192 10.5412 15.7192 10.5822 15.6742L11.1973 15L11.2793 14.0113C11.2793 13.9663 11.3203 13.9214 11.3613 13.9214H12.1404L12.4684 13.5618C12.5094 13.5169 12.5094 13.4719 12.4684 13.427L11.1973 12.0337C11.1563 11.9888 11.1153 11.9888 11.0743 12.0337Z" fill="url(#paint5_linear_18_263)"/>
<path opacity="0.5" fill-rule="evenodd" clip-rule="evenodd" d="M14.068 13.9217H11.4028C11.3618 13.9217 11.3208 13.9666 11.3208 14.0116V15.9892C11.3208 16.0341 11.3618 16.079 11.4028 16.079H12.3049L12.9609 15.4948C13.0019 15.4498 13.0429 15.4498 13.084 15.4948L13.617 16.079H14.068C14.109 16.079 14.15 16.0341 14.15 15.9892V14.0116C14.15 13.9666 14.109 13.9217 14.068 13.9217Z" fill="url(#paint6_linear_18_263)"/>
<path opacity="0.5" fill-rule="evenodd" clip-rule="evenodd" d="M6.03075 16.3484L7.91691 18.4609C7.95791 18.5058 7.99892 18.5058 8.03992 18.4609L9.31103 17.0676C9.35204 17.0226 9.35204 16.9777 9.31103 16.9327L8.69598 16.2136L7.83491 16.1237C7.7939 16.1237 7.7529 16.0788 7.7529 16.0338V15.1799L7.42487 14.8203C7.38387 14.7754 7.34286 14.7754 7.30186 14.8203L6.03075 16.2136C5.98975 16.2586 5.98975 16.3035 6.03075 16.3484Z" fill="url(#paint7_linear_18_263)"/>
<path opacity="0.5" fill-rule="evenodd" clip-rule="evenodd" d="M13.2477 17.9664V18.8204L13.5757 19.18L13.2477 17.9664ZM13.0836 15.4945L13.6167 16.0788H14.0677L13.0836 15.4945ZM11.3615 13.9214H12.1406L12.4686 13.5619L11.3615 13.9214ZM9.1473 14.1461L9.72136 13.5169V13.0225L9.1473 14.1461ZM7.75319 16.0338V15.1799L7.42516 14.8203L7.75319 16.0338ZM7.9582 18.4608L7.42516 17.8766H6.97412L7.9582 18.4608ZM9.63935 20.0788H8.86028L8.53225 20.4384L9.63935 20.0788ZM11.8535 19.8541L11.2795 20.4833V20.9777L11.8535 19.8541Z" fill="#3AACF8"/>
<path d="M19.4797 17.8312C19.4797 17.9211 19.4797 17.966 19.4387 18.0559C19.4387 18.1458 19.3977 18.1908 19.3567 18.2806C19.3157 18.3705 19.2337 18.4155 19.1517 18.4604C19.0697 18.5054 18.9877 18.5054 18.8647 18.5503H17.9216V17.202H18.8647C18.9877 17.202 19.1107 17.2469 19.1927 17.2919C19.2747 17.3368 19.3567 17.4267 19.3977 17.5166C19.4387 17.5615 19.4797 17.6964 19.4797 17.8312ZM23.9901 19.3144V18.6851C23.9901 18.5953 23.9901 18.5503 23.9491 18.5503C23.9491 18.5054 23.9081 18.5054 23.8261 18.5054H22.104C22.0219 18.5054 21.9399 18.5054 21.8579 18.4604C21.7759 18.4155 21.7349 18.3705 21.7349 18.3256C21.6939 18.2806 21.6939 18.1908 21.6939 18.0559V17.2469H23.5391C23.5801 17.2469 23.6211 17.2469 23.6211 17.202C23.6211 17.157 23.6621 17.1121 23.6621 17.0671V16.4829C23.6621 16.4379 23.6621 16.348 23.6211 16.348C23.6211 16.3031 23.5801 16.3031 23.5391 16.3031H21.6939V15.7637C21.6939 15.6738 21.6939 15.584 21.7349 15.539C21.7759 15.4941 21.8169 15.4042 21.8579 15.3592C21.8989 15.3143 22.0219 15.3143 22.104 15.3143H23.7441C23.7851 15.3143 23.8261 15.3143 23.8261 15.2693C23.8261 15.2244 23.8671 15.2244 23.8671 15.1345V14.5053C23.8671 14.4603 23.8671 14.3704 23.8261 14.3704C23.8261 14.3255 23.7851 14.3255 23.7441 14.3255H21.8989C21.6939 14.3255 21.4889 14.3705 21.3659 14.4154C21.2019 14.5053 21.0789 14.5952 20.9969 14.73C20.9149 14.8648 20.8328 14.9997 20.7918 15.1795C20.7508 15.3592 20.7098 15.4941 20.7098 15.6738V18.0559C20.7098 18.2357 20.7098 18.3705 20.7508 18.5503C20.7918 18.6851 20.8328 18.8649 20.9559 18.9548C21.0379 19.0896 21.1609 19.1795 21.3249 19.2694C21.4889 19.3593 21.6939 19.4043 21.8989 19.4043H23.8261C23.8671 19.4043 23.9081 19.4043 23.9491 19.3593C23.9901 19.4043 23.9901 19.3593 23.9901 19.3144ZM31.3708 16.7525C31.4938 16.6177 31.6168 16.4828 31.6988 16.348C31.7808 16.2132 31.8628 16.0334 31.9038 15.8087L32.1908 14.5053V14.4603C32.1908 14.4154 32.1908 14.4154 32.1498 14.4154C32.1498 14.4154 32.1088 14.3704 32.0678 14.3704H31.3297C31.2887 14.3704 31.2887 14.3704 31.2477 14.3704C31.2067 14.3704 31.2067 14.4154 31.2067 14.4603L30.9197 15.6738C30.8787 15.8087 30.8377 15.9435 30.7967 16.0334C30.7557 16.1233 30.6737 16.1682 30.5917 16.2132C30.5097 16.2581 30.4687 16.3031 30.3867 16.3031C30.3047 16.3031 30.2637 16.3031 30.1817 16.3031H29.6896V14.4603C29.6896 14.4154 29.6896 14.3704 29.6896 14.3704C29.6896 14.3704 29.6486 14.3704 29.6076 14.3704H28.8695C28.8285 14.3704 28.7875 14.3704 28.7875 14.3704C28.7875 14.3704 28.7465 14.4154 28.7465 14.4603V19.2694C28.7465 19.3144 28.7465 19.3593 28.7875 19.3593C28.7875 19.3593 28.8285 19.3593 28.8695 19.3593H29.6076C29.6486 19.3593 29.6896 19.3593 29.6896 19.3593C29.6896 19.3593 29.7306 19.3144 29.7306 19.2694V17.1121H30.2637C30.4277 17.1121 30.5507 17.1121 30.6327 17.157C30.7557 17.202 30.8377 17.2469 30.8787 17.3368C30.9607 17.4267 31.0017 17.5615 31.0427 17.6964L31.4528 19.2694C31.4528 19.3144 31.4938 19.3593 31.4938 19.3593C31.5348 19.3593 31.5348 19.3593 31.5758 19.3593H32.3138C32.3548 19.3593 32.3548 19.3593 32.3958 19.3144L32.4368 19.2694C32.4368 19.2245 32.4368 19.2245 32.4368 19.2245L32.0268 17.5615C31.9858 17.4716 31.9858 17.3368 31.9448 17.2469C31.9038 17.157 31.8628 17.0671 31.8218 17.0222C31.7808 16.9323 31.6988 16.8874 31.6578 16.8424C31.5758 16.8874 31.4528 16.7975 31.3708 16.7525ZM34.077 17.5166L34.323 16.6177L34.569 15.584H34.61L34.8561 16.6177L35.1021 17.5166H34.077ZM35.3071 18.4155L35.5531 19.3593C35.5531 19.4043 35.5941 19.4492 35.6351 19.4492C35.6761 19.4492 35.7171 19.4492 35.7581 19.4492H36.5372C36.5782 19.4492 36.5782 19.4492 36.6192 19.4043L36.6602 19.3593V19.3144L35.3071 14.7749C35.2661 14.6401 35.2251 14.5952 35.1841 14.5053C35.1431 14.4603 35.1021 14.4154 35.0201 14.4154C34.9381 14.4154 34.8971 14.3704 34.774 14.3704H34.405C34.323 14.3704 34.241 14.3705 34.2 14.4154C34.159 14.4154 34.077 14.4603 34.036 14.5502C33.995 14.5952 33.954 14.6851 33.954 14.7749L32.6009 19.3144C32.6009 19.3593 32.6009 19.4043 32.6009 19.4043C32.6009 19.4492 32.6419 19.4492 32.6829 19.4492H33.4209C33.4619 19.4492 33.5029 19.4492 33.5439 19.4043C33.5849 19.4043 33.5849 19.3593 33.5849 19.3144L33.831 18.4155H35.3071ZM39.3664 16.0784C39.3664 16.2132 39.3254 16.3031 39.2844 16.4379C39.2434 16.5278 39.1614 16.6177 39.0794 16.6626C38.9974 16.7076 38.8744 16.7525 38.7104 16.7525H37.8493V15.3592H38.6694C38.7924 15.3592 38.9154 15.4042 38.9974 15.4491C39.0794 15.4941 39.1614 15.539 39.2024 15.6289C39.2434 15.7188 39.2844 15.7637 39.2844 15.8536C39.3254 15.8986 39.3664 15.9885 39.3664 16.0784ZM37.8493 19.3144V17.6514H38.7104C38.9564 17.6514 39.1614 17.6065 39.3254 17.5615C39.4894 17.5166 39.6535 17.4267 39.7765 17.3368C39.8995 17.2469 39.9815 17.1121 40.0635 17.0222C40.1455 16.8873 40.1865 16.7975 40.2275 16.6626C40.2685 16.5278 40.3095 16.4379 40.3095 16.3031C40.3095 16.2132 40.3505 16.0783 40.3505 15.9885C40.3505 15.7637 40.3095 15.539 40.2275 15.3592C40.1455 15.1795 40.0635 14.9997 39.9405 14.8648C39.8175 14.73 39.6535 14.5952 39.4484 14.5502C39.2434 14.4603 39.0384 14.4154 38.8334 14.4154H37.2343C37.1522 14.4154 37.0702 14.4154 36.9882 14.4603C36.9472 14.5053 36.9062 14.5502 36.8652 14.5952C36.8242 14.6401 36.8242 14.73 36.8242 14.8199V19.2694C36.8242 19.3144 36.8242 19.3593 36.8652 19.4043C36.9062 19.4492 36.9062 19.4492 36.9882 19.4492H37.6853C37.7263 19.4492 37.7673 19.4492 37.7673 19.4492C37.8083 19.4492 37.8083 19.4492 37.8083 19.4043C37.8493 19.4043 37.8493 19.3593 37.8493 19.3144ZM43.9998 15.1795V14.5502C43.9998 14.5053 43.9998 14.4603 43.9588 14.4154C43.9588 14.4154 43.9178 14.3704 43.8358 14.3704H40.5145C40.4735 14.3704 40.4325 14.3705 40.4325 14.4154C40.4325 14.4154 40.3915 14.4603 40.3915 14.5502V15.1795C40.3915 15.2244 40.3915 15.2693 40.4325 15.2693C40.4325 15.3143 40.4735 15.3143 40.5145 15.3143H41.6626V19.2694C41.6626 19.3144 41.6626 19.3593 41.7036 19.4043C41.7446 19.4492 41.7446 19.4492 41.8267 19.4492H42.5237C42.6057 19.4492 42.6467 19.4492 42.6467 19.4043C42.6877 19.4043 42.6877 19.3593 42.6877 19.2694V15.3143H43.8768C43.9178 15.3143 43.9588 15.3143 43.9588 15.2693C43.9588 15.2693 43.9998 15.2244 43.9998 15.1795ZM17.3065 19.4492H18.9467C19.1517 19.4492 19.3567 19.4043 19.5617 19.3144C19.7668 19.2245 19.9308 19.1346 20.0538 18.9998C20.1768 18.8649 20.2998 18.6851 20.3818 18.5054C20.4638 18.3256 20.5048 18.1009 20.5048 17.8761C20.5048 17.7863 20.5048 17.6964 20.5048 17.6065C20.5048 17.5166 20.4638 17.3817 20.4228 17.2469C20.3818 17.1121 20.3408 17.0222 20.2588 16.8874C20.1768 16.7525 20.0948 16.6626 19.9718 16.5727C19.8488 16.4828 19.6847 16.393 19.5207 16.348C19.3567 16.3031 19.1107 16.2581 18.8647 16.2581H17.9216V15.3592H19.8898C19.9308 15.3592 19.9718 15.3592 19.9718 15.3143C19.9718 15.3143 20.0128 15.2693 20.0128 15.2244V14.5952C20.0128 14.5502 20.0128 14.5053 19.9718 14.4603C19.9718 14.4154 19.9308 14.4154 19.8898 14.4154H17.3886C17.3065 14.4154 17.2245 14.4154 17.1425 14.4603C17.1015 14.5053 17.0195 14.5502 17.0195 14.6401C16.9785 14.73 16.9785 14.8199 16.9785 14.9098V19.0447C16.9785 19.1346 16.9785 19.2245 17.0195 19.3144C17.0605 19.3593 17.0605 19.4043 17.1425 19.4492C17.1425 19.4492 17.2245 19.4492 17.3065 19.4492ZM24.9742 14.9098L24.9332 15.9885C24.9332 16.348 24.8922 16.7076 24.8512 16.9772C24.8102 17.4267 24.7692 18.5503 24.2361 18.5503C24.1951 18.5503 24.1541 18.5503 24.1131 18.5952C24.1131 18.6402 24.0721 18.6851 24.0721 18.7301V19.3593C24.0721 19.4043 24.0721 19.4492 24.1131 19.4941C24.1131 19.5391 24.1541 19.5391 24.2361 19.5391C24.6462 19.5391 25.0152 19.4942 25.3022 18.9998C25.3842 18.82 25.4662 18.6402 25.5482 18.4604C25.5893 18.2357 25.6713 18.011 25.6713 17.7862C25.7123 17.5166 25.7533 17.2469 25.7533 16.9772C25.7943 16.6626 25.7943 16.348 25.8353 15.9885L25.8763 15.4941H27.1474V19.4492C27.1474 19.4942 27.1474 19.5391 27.1884 19.5391C27.1884 19.5391 27.2294 19.584 27.2704 19.584H27.9675C28.0085 19.584 28.0495 19.584 28.0495 19.584C28.0905 19.584 28.0905 19.584 28.0905 19.5391C28.0905 19.5391 28.0905 19.4942 28.0905 19.4492V14.9997C28.0905 14.9098 28.0905 14.8199 28.0495 14.73C28.0085 14.6401 27.9675 14.5952 27.9265 14.5502C27.8855 14.5053 27.8034 14.5053 27.6804 14.5053H25.3432C25.2612 14.5053 25.1792 14.5053 25.0972 14.5502C25.0562 14.5952 25.0152 14.6401 24.9742 14.73C25.0152 14.6851 25.0152 14.775 24.9742 14.9098Z" fill="#5593DD"/>
<defs>
<linearGradient id="paint0_linear_18_263" x1="11.6136" y1="17.0908" x2="15.04" y2="17.5301" gradientUnits="userSpaceOnUse">
<stop stop-color="#A2D9F7"/>
<stop offset="0.5" stop-color="#1B9DD9"/>
<stop offset="1" stop-color="#055795"/>
</linearGradient>
<linearGradient id="paint1_linear_18_263" x1="11.2502" y1="17.9334" x2="13.5391" y2="20.8076" gradientUnits="userSpaceOnUse">
<stop stop-color="#A2D9F7"/>
<stop offset="0.5" stop-color="#1B9DD9"/>
<stop offset="1" stop-color="#055795"/>
</linearGradient>
<linearGradient id="paint2_linear_18_263" x1="10.4411" y1="18.2457" x2="9.86116" y2="22.0103" gradientUnits="userSpaceOnUse">
<stop stop-color="#A2D9F7"/>
<stop offset="0.5" stop-color="#1B9DD9"/>
<stop offset="1" stop-color="#055795"/>
</linearGradient>
<linearGradient id="paint3_linear_18_263" x1="9.74009" y1="17.8665" x2="6.77506" y2="19.7606" gradientUnits="userSpaceOnUse">
<stop stop-color="#A2D9F7"/>
<stop offset="0.5" stop-color="#1B9DD9"/>
<stop offset="1" stop-color="#055795"/>
</linearGradient>
<linearGradient id="paint4_linear_18_263" x1="9.73734" y1="16.0741" x2="7.49501" y2="13.1525" gradientUnits="userSpaceOnUse">
<stop stop-color="#A2D9F7"/>
<stop offset="0.5" stop-color="#1B9DD9"/>
<stop offset="1" stop-color="#055795"/>
</linearGradient>
<linearGradient id="paint5_linear_18_263" x1="10.5468" y1="15.7401" x2="11.1986" y2="11.9856" gradientUnits="userSpaceOnUse">
<stop stop-color="#A2D9F7"/>
<stop offset="0.5" stop-color="#1B9DD9"/>
<stop offset="1" stop-color="#055795"/>
</linearGradient>
<linearGradient id="paint6_linear_18_263" x1="11.3245" y1="16.1278" x2="14.2792" y2="14.1693" gradientUnits="userSpaceOnUse">
<stop stop-color="#A2D9F7"/>
<stop offset="0.5" stop-color="#1B9DD9"/>
<stop offset="1" stop-color="#055795"/>
</linearGradient>
<linearGradient id="paint7_linear_18_263" x1="9.39673" y1="16.9326" x2="5.97357" y2="16.4379" gradientUnits="userSpaceOnUse">
<stop stop-color="#A2D9F7"/>
<stop offset="0.5" stop-color="#1B9DD9"/>
<stop offset="1" stop-color="#055795"/>
</linearGradient>
</defs>
</svg>

<svg width="50" height="34" fill="none" xmlns="http://www.w3.org/2000/svg"><path d="M0 4.25C0 1.903 1.865 0 4.167 0h41.666C48.135 0 50 1.903 50 4.25v25.5c0 2.347-1.865 4.25-4.167 4.25H4.167C1.865 34 0 32.097 0 29.75V4.25z" fill="#1E4D51"/><path opacity=".5" fill-rule="evenodd" clip-rule="evenodd" d="M10.5 20.213c1.6 0 2.87-1.438 2.87-3.236 0-1.797-1.312-3.236-2.87-3.236-1.599 0-2.87 1.439-2.87 3.236 0 1.798 1.271 3.236 2.87 3.236z" fill="#fff"/><path opacity=".5" fill-rule="evenodd" clip-rule="evenodd" d="M14.97 17.652l-1.887-2.113c-.04-.045-.082-.045-.123 0l-1.271 1.394c-.041.045-.041.09 0 .134l.615.675.861.09c.041 0 .082.044.082.09v.853l.328.36c.041.045.082.045.123 0l1.271-1.393c.041 0 .041-.045 0-.09z" fill="url(#paint0_linear_18_263)"/><path opacity=".5" fill-rule="evenodd" clip-rule="evenodd" d="M13.247 20.978v-3.012c0-.045-.041-.09-.082-.09h-1.804c-.041 0-.082.045-.082.09v.944l.574.81c.04.044.04.089 0 .134l-.574.63v.494c0 .044.04.09.082.09h1.804c.041 0 .082-.046.082-.09z" fill="url(#paint1_linear_18_263)"/><path opacity=".5" fill-rule="evenodd" clip-rule="evenodd" d="M9.967 21.966l1.886-2.112c.041-.045.041-.09 0-.135l-1.271-1.393c-.041-.045-.082-.045-.123 0L9.844 19l-.123.989c0 .045-.041.09-.082.09h-.78l-.327.36c-.041.044-.041.089 0 .134l1.27 1.393a.117.117 0 00.165 0z" fill="url(#paint2_linear_18_263)"/><path opacity=".5" fill-rule="evenodd" clip-rule="evenodd" d="M6.974 20.079H9.64c.041 0 .082-.045.082-.09V18.01c0-.045-.04-.09-.082-.09h-.902l-.656.585c-.04.045-.082.045-.123 0l-.533-.585h-.45c-.042 0-.083.045-.083.09v1.978c-.04.045 0 .09.082.09z" fill="url(#paint3_linear_18_263)"/><path opacity=".5" fill-rule="evenodd" clip-rule="evenodd" d="M7.752 13.022v3.012c0 .045.041.09.082.09H9.64c.04 0 .082-.045.082-.09v-.944l-.574-.764c-.041-.045-.041-.09 0-.135l.574-.63v-.494c0-.045-.041-.09-.082-.09H7.834c-.04-.045-.082 0-.082.045z" fill="url(#paint4_linear_18_263)"/><path opacity=".5" fill-rule="evenodd" clip-rule="evenodd" d="M11.074 12.034l-1.886 2.112c-.04.045-.04.09 0 .135l1.271 1.393c.041.045.082.045.123 0l.615-.674.082-.989c0-.045.041-.09.082-.09h.78l.327-.36c.041-.044.041-.09 0-.134l-1.27-1.393c-.042-.045-.083-.045-.124 0z" fill="url(#paint5_linear_18_263)"/><path opacity=".5" fill-rule="evenodd" clip-rule="evenodd" d="M14.068 13.922h-2.665c-.041 0-.082.045-.082.09v1.977c0 .045.04.09.082.09h.902l.656-.584c.04-.045.082-.045.123 0l.533.584h.451c.041 0 .082-.045.082-.09v-1.977c0-.045-.041-.09-.082-.09z" fill="url(#paint6_linear_18_263)"/><path opacity=".5" fill-rule="evenodd" clip-rule="evenodd" d="M6.03 16.348l1.887 2.113c.04.045.082.045.123 0l1.271-1.393c.041-.045.041-.09 0-.135l-.615-.72-.861-.09c-.041 0-.082-.044-.082-.09v-.853l-.328-.36c-.041-.045-.082-.045-.123 0L6.03 16.214c-.041.045-.041.09 0 .134z" fill="url(#paint7_linear_18_263)"/><path opacity=".5" fill-rule="evenodd" clip-rule="evenodd" d="M13.248 17.966v.854l.328.36-.328-1.214zm-.164-2.472l.533.585h.45l-.983-.585zm-1.723-1.573h.78l.328-.36-1.107.36zm-2.214.225l.574-.63v-.493l-.574 1.123zm-1.394 1.888v-.854l-.328-.36.328 1.214zm.205 2.427l-.533-.584h-.45l.983.584zm1.681 1.618H8.86l-.328.36 1.107-.36zm2.215-.225l-.574.63v.494l.574-1.124z" fill="#3AACF8"/><path d="M19.48 17.831c0 .09 0 .135-.041.225 0 .09-.041.135-.082.225s-.123.135-.205.18c-.082.044-.164.044-.287.09h-.943v-1.349h.943c.123 0 .246.045.328.09a.52.52 0 01.205.225c.04.044.082.18.082.314zm4.51 1.483v-.629c0-.09 0-.135-.04-.135 0-.045-.042-.045-.124-.045h-1.722c-.082 0-.164 0-.246-.045-.082-.044-.123-.09-.123-.134-.041-.045-.041-.135-.041-.27v-.81h1.845c.041 0 .082 0 .082-.044 0-.045.041-.09.041-.135v-.584c0-.045 0-.135-.04-.135 0-.045-.042-.045-.083-.045h-1.845v-.54c0-.09 0-.179.04-.224.042-.045.083-.135.124-.18.04-.045.164-.045.246-.045h1.64c.041 0 .082 0 .082-.045s.041-.045.041-.135v-.629c0-.045 0-.135-.04-.135 0-.044-.042-.044-.083-.044H21.9c-.205 0-.41.044-.533.09-.164.09-.287.18-.37.314-.081.135-.163.27-.204.45-.041.18-.082.314-.082.494v2.382c0 .18 0 .314.04.494.042.135.083.315.206.405.082.135.205.225.369.314.164.09.369.135.574.135h1.927c.041 0 .082 0 .123-.045.041.045.041 0 .041-.045zm7.38-2.561a2.84 2.84 0 00.329-.405 1.58 1.58 0 00.205-.54l.287-1.303v-.045c0-.045 0-.045-.041-.045 0 0-.041-.045-.082-.045h-.82c-.041 0-.041.045-.041.09l-.287 1.214c-.041.135-.082.27-.123.36-.041.09-.123.134-.205.18-.082.044-.123.09-.205.09h-.697V14.37h-.902s-.041.045-.041.09v4.81c0 .044 0 .09.04.09h.903s.04-.046.04-.09v-2.158h.534c.164 0 .287 0 .369.045.123.045.205.09.246.18.082.09.123.224.164.36l.41 1.572c0 .045.04.09.04.09h.821c.04 0 .04 0 .082-.045l.04-.045v-.044l-.41-1.664c-.04-.09-.04-.224-.081-.314s-.082-.18-.123-.225c-.041-.09-.123-.135-.164-.18-.082.045-.205-.044-.287-.09zm2.707.764l.246-.9.246-1.033h.041l.246 1.034.246.899h-1.025zm1.23.899l.246.943c0 .045.041.09.082.09h.903c.04 0 .04 0 .081-.045l.041-.045v-.045l-1.353-4.54c-.04-.134-.082-.179-.123-.269-.04-.045-.082-.09-.164-.09s-.123-.045-.246-.045h-.369c-.082 0-.164 0-.205.045-.041 0-.123.045-.164.135a.362.362 0 00-.082.225l-1.353 4.54v.09c0 .044.04.044.082.044h.738c.04 0 .082 0 .123-.045.04 0 .04-.045.04-.09l.247-.898h1.476zm4.06-2.338c0 .135-.042.225-.083.36a.52.52 0 01-.205.225.76.76 0 01-.369.09h-.86v-1.394h.82a.72.72 0 01.327.09c.082.045.164.09.205.18.041.09.082.135.082.225a.362.362 0 01.082.224zm-1.518 3.236v-1.663h.861c.246 0 .451-.044.615-.09.164-.044.328-.134.451-.224s.205-.225.287-.315c.082-.135.123-.224.164-.36.042-.134.083-.224.083-.359 0-.09.04-.225.04-.315 0-.224-.04-.449-.123-.629-.081-.18-.163-.36-.286-.494-.123-.135-.288-.27-.493-.315a1.52 1.52 0 00-.615-.135h-1.599c-.082 0-.164 0-.246.045l-.123.135c-.04.045-.04.135-.04.225v4.45c0 .044 0 .09.04.134.041.045.041.045.123.045h.779c.041 0 .041 0 .041-.045.041 0 .041-.045.041-.09zM44 15.18v-.63c0-.045 0-.09-.04-.135 0 0-.041-.045-.123-.045h-3.322c-.04 0-.082 0-.082.045 0 0-.04.045-.04.135v.63c0 .044 0 .09.04.09 0 .044.041.044.082.044h1.149v3.955c0 .045 0 .09.04.135.042.045.042.045.124.045h.697c.082 0 .123 0 .123-.045.04 0 .04-.045.04-.135v-3.955h1.19c.04 0 .082 0 .082-.045 0 0 .04-.045.04-.09zm-26.693 4.27h1.64c.206 0 .41-.046.616-.136.205-.09.369-.18.492-.314.123-.135.246-.315.328-.495.082-.18.123-.404.123-.629v-.27a1.5 1.5 0 00-.082-.36 1.4 1.4 0 00-.164-.359 1.009 1.009 0 00-.287-.314 1.458 1.458 0 00-.451-.225 2.62 2.62 0 00-.656-.09h-.943v-.899h1.968c.04 0 .082 0 .082-.045 0 0 .04-.045.04-.09v-.629c0-.045 0-.09-.04-.135 0-.045-.041-.045-.082-.045H17.39c-.082 0-.165 0-.247.045-.04.045-.122.09-.122.18-.041.09-.041.18-.041.27v4.135c0 .09 0 .18.04.27.042.044.042.09.123.134h.165zm7.668-4.54l-.04 1.079c0 .359-.042.719-.083.988-.04.45-.082 1.573-.615 1.573-.04 0-.082 0-.123.045 0 .045-.04.09-.04.135v.63c0 .044 0 .09.04.134 0 .045.041.045.123.045.41 0 .78-.045 1.066-.54l.246-.539c.041-.224.123-.449.123-.674.041-.27.082-.54.082-.809.041-.314.041-.629.082-.989l.041-.494h1.271v3.955c0 .045 0 .09.041.09 0 0 .041.045.082.045h.779c.041 0 .041 0 .041-.045V15c0-.09 0-.18-.04-.269-.041-.09-.082-.135-.123-.18-.041-.045-.124-.045-.247-.045h-2.337c-.082 0-.164 0-.246.045-.04.045-.082.09-.123.18.041-.045.041.045 0 .18z" fill="#5593DD"/><defs><linearGradient id="paint0_linear_18_263" x1="11.614" y1="17.091" x2="15.04" y2="17.53" gradientUnits="userSpaceOnUse"><stop stop-color="#A2D9F7"/><stop offset=".5" stop-color="#1B9DD9"/><stop offset="1" stop-color="#055795"/></linearGradient><linearGradient id="paint1_linear_18_263" x1="11.25" y1="17.933" x2="13.539" y2="20.808" gradientUnits="userSpaceOnUse"><stop stop-color="#A2D9F7"/><stop offset=".5" stop-color="#1B9DD9"/><stop offset="1" stop-color="#055795"/></linearGradient><linearGradient id="paint2_linear_18_263" x1="10.441" y1="18.246" x2="9.861" y2="22.01" gradientUnits="userSpaceOnUse"><stop stop-color="#A2D9F7"/><stop offset=".5" stop-color="#1B9DD9"/><stop offset="1" stop-color="#055795"/></linearGradient><linearGradient id="paint3_linear_18_263" x1="9.74" y1="17.866" x2="6.775" y2="19.761" gradientUnits="userSpaceOnUse"><stop stop-color="#A2D9F7"/><stop offset=".5" stop-color="#1B9DD9"/><stop offset="1" stop-color="#055795"/></linearGradient><linearGradient id="paint4_linear_18_263" x1="9.737" y1="16.074" x2="7.495" y2="13.152" gradientUnits="userSpaceOnUse"><stop stop-color="#A2D9F7"/><stop offset=".5" stop-color="#1B9DD9"/><stop offset="1" stop-color="#055795"/></linearGradient><linearGradient id="paint5_linear_18_263" x1="10.547" y1="15.74" x2="11.199" y2="11.986" gradientUnits="userSpaceOnUse"><stop stop-color="#A2D9F7"/><stop offset=".5" stop-color="#1B9DD9"/><stop offset="1" stop-color="#055795"/></linearGradient><linearGradient id="paint6_linear_18_263" x1="11.325" y1="16.128" x2="14.279" y2="14.169" gradientUnits="userSpaceOnUse"><stop stop-color="#A2D9F7"/><stop offset=".5" stop-color="#1B9DD9"/><stop offset="1" stop-color="#055795"/></linearGradient><linearGradient id="paint7_linear_18_263" x1="9.397" y1="16.933" x2="5.974" y2="16.438" gradientUnits="userSpaceOnUse"><stop stop-color="#A2D9F7"/><stop offset=".5" stop-color="#1B9DD9"/><stop offset="1" stop-color="#055795"/></linearGradient></defs></svg>
